src/actions/symbolic/window-pop-out-symbolic.svg

<svg width="16" height="16" version="1.1" xmlns="http://www.w3.org/2000/svg">
 <path d="m4 4c-1.108 0-2 0.892-2 2v6c0 1.108 0.892 2 2 2h7c1.108 0 2-0.892 2-2v-6c0-1.108-0.892-2-2-2h-7zm0 2h7c0.554 0 1 0.446 1 1v5c0 0.554-0.446 1-1 1h-7c-0.554 0-1-0.446-1-1v-5c0-0.554 0.446-1 1-1z" fill="#363636"/>
 <path d="m6 2c-0.74107 0-1.379 0.4042-1.7246 1h7.7246c1.108 0 2 0.892 2 2v5 1.7246c0.5958-0.34556 1-0.98354 1-1.7246v-5c0-1.662-1.338-3-3-3h-6z" fill="#363636"/>
</svg>

<svg xmlns="http://www.w3.org/2000/svg" width="16" height="16">
    <path fill="#050505" fill-opacity=".7" d="M4 4c-1.108 0-2 .892-2 2v6c0 1.108.892 2 2 2h7c1.108 0 2-.892 2-2V6c0-1.108-.892-2-2-2H4zm0 2h7c.554 0 1 .446 1 1v5c0 .554-.446 1-1 1H4c-.554 0-1-.446-1-1V7c0-.554.446-1 1-1z"/>
    <path fill="#050505" fill-opacity=".7" d="M6 2a1.99 1.99 0 0 0-1.725 1H12c1.108 0 2 .892 2 2v6.725A1.99 1.99 0 0 0 15 10V5c0-1.662-1.338-3-3-3H6z"/>
</svg>
